icons/baidu-fill.svg

<svg xmlns="http://www.w3.org/2000/svg" width="24" height="24" fill="none"><g clip-path="url(#a)"><g><path fill="#121212" d="M5.92702 12.497C7.99002 12.054 7.70902 9.588 7.64702 9.049C7.54602 8.219 6.56902 6.767 5.24202 6.882C3.57202 7.032 3.32902 9.443 3.32902 9.443C3.10302 10.558 3.86902 12.94 5.92702 12.497ZM8.11702 16.785C8.05702 16.958 7.92202 17.401 8.03902 17.787C8.26902 18.653 9.02102 18.692 9.02102 18.692H10.101V16.052H8.94402C8.42402 16.206 8.17402 16.611 8.11702 16.785ZM9.75502 8.363C10.895 8.363 11.815 7.051 11.815 5.43C11.815 3.81 10.895 2.5 9.75502 2.5C8.61802 2.5 7.69502 3.81 7.69502 5.43C7.69502 7.051 8.61802 8.363 9.75502 8.363ZM14.663 8.556C16.185 8.754 17.164 7.129 17.359 5.897C17.558 4.667 16.575 3.239 15.497 2.993C14.417 2.745 13.068 4.476 12.945 5.603C12.798 6.983 13.142 8.361 14.663 8.556ZM14.663 12.004C12.798 9.099 10.15 10.281 9.26302 11.759C8.38202 13.236 7.00702 14.169 6.81202 14.417C6.61402 14.661 3.96602 16.09 4.55402 18.701C5.14102 21.31 7.20602 21.261 7.20602 21.261C7.20602 21.261 8.72702 21.411 10.492 21.015C12.258 20.624 13.778 21.113 13.778 21.113C13.778 21.113 17.903 22.493 19.031 19.835C20.159 17.175 18.394 15.797 18.394 15.797C18.394 15.797 16.038 13.974 14.662 12.004H14.663ZM8.65502 19.754C7.49702 19.523 7.03602 18.733 6.97802 18.598C6.92102 18.461 6.59202 17.826 6.76602 16.745C7.26602 15.126 8.69302 15.01 8.69302 15.01H10.121V13.255L11.336 13.275V19.754H8.65602H8.65502ZM13.245 19.735C12.049 19.427 11.994 18.577 11.994 18.577V15.165L13.245 15.145V18.211C13.322 18.539 13.728 18.598 13.728 18.598H14.999V15.165H16.331V19.735H13.245ZM20.699 10.625C20.699 10.035 20.209 8.261 18.394 8.261C16.575 8.261 16.332 9.936 16.332 11.12C16.332 12.25 16.427 13.827 18.686 13.777C20.946 13.727 20.699 11.217 20.699 10.625Z"/></g></g><defs><clipPath id="a"><rect width="24" height="24" fill="white"/></clipPath></defs></svg>

<svg width="24" height="24" fill="none" xmlns="http://www.w3.org/2000/svg"><g clip-path="url(#a)"><path d="M5.927 12.497c2.063-.443 1.782-2.909 1.72-3.448-.101-.83-1.078-2.282-2.405-2.167-1.67.15-1.913 2.561-1.913 2.561-.226 1.115.54 3.497 2.598 3.054Zm2.19 4.288c-.06.173-.195.616-.078 1.002.23.866.982.905.982.905h1.08v-2.64H8.944c-.52.154-.77.559-.827.733Zm1.638-8.422c1.14 0 2.06-1.312 2.06-2.933 0-1.62-.92-2.93-2.06-2.93-1.137 0-2.06 1.31-2.06 2.93 0 1.621.923 2.933 2.06 2.933Zm4.908.193c1.522.198 2.501-1.427 2.696-2.659.199-1.23-.784-2.658-1.862-2.904-1.08-.248-2.429 1.483-2.552 2.61-.147 1.38.197 2.758 1.718 2.953Zm0 3.448c-1.865-2.905-4.513-1.723-5.4-.245-.881 1.477-2.256 2.41-2.451 2.658-.198.244-2.846 1.673-2.258 4.284.587 2.609 2.652 2.56 2.652 2.56s1.521.15 3.286-.246c1.766-.391 3.286.098 3.286.098s4.125 1.38 5.253-1.278c1.128-2.66-.637-4.038-.637-4.038s-2.356-1.823-3.732-3.793h.001Zm-6.008 7.75c-1.158-.231-1.619-1.021-1.677-1.156-.057-.137-.386-.772-.212-1.853.5-1.619 1.927-1.735 1.927-1.735h1.428v-1.755l1.215.02v6.479H8.655Zm4.59-.019c-1.196-.308-1.251-1.158-1.251-1.158v-3.412l1.251-.02v3.066c.077.328.483.387.483.387h1.271v-3.433h1.332v4.57h-3.086Zm7.454-9.11c0-.59-.49-2.364-2.305-2.364-1.819 0-2.062 1.675-2.062 2.859 0 1.13.095 2.707 2.354 2.657 2.26-.05 2.013-2.56 2.013-3.152Z" /></g><defs><clipPath id="a"><path fill="#fff" d="M0 0h24v24H0z"/></clipPath></defs></svg>
